packages/components/src/components/icon/wallet/ic-wallet-wallets.svg

<svg width="16" height="16" viewBox="0 0 16 16" fill="none" xmlns="http://www.w3.org/2000/svg">
<path d="M9.86548e-07 1.99799C0.00108545 0.894345 0.8961 0 2 0H11.5C12.8807 0 14 1.11929 14 2.5L14.001 3.50055C14.5257 3.89506 14.8901 4.4913 14.9789 5.17409L14.9947 5.33562L15 5.5L15.001 7.50055C15.6076 7.95669 16 8.68253 16 9.5V10.5C16 11.3175 15.6076 12.0433 15.001 12.4995L15 13.5C15 14.8255 13.9685 15.91 12.6644 15.9947L12.5 16H2.5C1.17452 16 0.0899613 14.9685 0.00531768 13.6644L0 13.5L9.86548e-07 1.99799ZM0.999928 3.73239L1 13.5C1 14.2797 1.59489 14.9204 2.35554 14.9931L2.5 15H12.5C13.2797 15 13.9204 14.4051 13.9931 13.6445L14 13.5L14.0004 12.9499C13.8387 12.9828 13.6714 13 13.5 13H11.5C10.1193 13 9 11.8807 9 10.5V9.5C9 8.11929 10.1193 7 11.5 7H13.5C13.6714 7 13.8387 7.01725 14.0004 7.0501L14 5.5C14 4.7203 13.4051 4.07955 12.6445 4.00687L12.521 4H2C1.63568 4 1.29412 3.90259 0.999928 3.73239ZM13.5 8H11.5C10.6716 8 10 8.67157 10 9.5V10.5C10 11.3284 10.6716 12 11.5 12H13.5C13.7347 12 13.9568 11.9461 14.1546 11.85C14.1748 11.8402 14.1947 11.83 14.2143 11.8193L14.1546 11.85C14.1973 11.8293 14.2389 11.8065 14.2792 11.782L14.2143 11.8193C14.2566 11.7964 14.2976 11.7715 14.3373 11.7448L14.2792 11.782C14.3167 11.7592 14.353 11.7348 14.3882 11.7089L14.3373 11.7448C14.3768 11.7181 14.4149 11.6897 14.4516 11.6596L14.3882 11.7089C14.4259 11.6811 14.4623 11.6516 14.4972 11.6206L14.4516 11.6596C14.4896 11.6284 14.526 11.5953 14.5607 11.5606L14.4972 11.6206C14.5302 11.5912 14.5618 11.5604 14.5921 11.5283L14.5607 11.5606C14.5921 11.5293 14.622 11.4965 14.6505 11.4625L14.5921 11.5283C14.6247 11.4937 14.6556 11.4576 14.6848 11.42L14.6505 11.4625C14.6774 11.4304 14.703 11.3971 14.7272 11.3627L14.6848 11.42C14.714 11.3825 14.7415 11.3434 14.7671 11.3031L14.7272 11.3627C14.7505 11.3297 14.7725 11.2957 14.7931 11.2607L14.7671 11.3031C14.7915 11.2647 14.8142 11.2251 14.8351 11.1844L14.7931 11.2607C14.8716 11.1276 14.9301 10.9813 14.9645 10.8259C14.9675 10.8121 14.9703 10.7986 14.973 10.785L14.9927 10.6488L15 10.5V9.5L14.9927 9.35119L14.973 9.21496C14.9685 9.19189 14.9635 9.16901 14.9581 9.14633C14.9299 9.02978 14.8882 8.91888 14.8348 8.81503C14.8219 8.78983 14.8079 8.76448 14.7933 8.7396L14.8348 8.81503C14.814 8.77448 14.7913 8.73501 14.767 8.69672L14.7933 8.7396C14.7726 8.70458 14.7506 8.67048 14.7273 8.63736L14.767 8.69672C14.7415 8.6565 14.714 8.61758 14.6849 8.58007L14.7273 8.63736C14.703 8.60293 14.6774 8.56956 14.6504 8.53734L14.6849 8.58007C14.6557 8.54253 14.6248 8.50641 14.5922 8.47184L14.6504 8.53734C14.6219 8.50336 14.592 8.47066 14.5607 8.43934L14.5922 8.47184C14.562 8.43973 14.5303 8.40896 14.4974 8.37962L14.5607 8.43934C14.526 8.40464 14.4896 8.37164 14.4516 8.34046L14.4974 8.37962C14.4623 8.34836 14.4257 8.31872 14.3878 8.29082L14.4516 8.34046C14.415 8.3104 14.377 8.28204 14.3377 8.2555L14.3878 8.29082C14.3528 8.26505 14.3165 8.24076 14.2793 8.21805L14.3377 8.2555C14.2978 8.22861 14.2566 8.20359 14.2141 8.18056L14.2793 8.21805C14.2389 8.19348 14.1974 8.17076 14.1546 8.15001L14.2141 8.18056C14.1772 8.16057 14.1394 8.14207 14.1008 8.12516L14.1546 8.15001C14.1103 8.12845 14.0647 8.10901 14.018 8.09183L14.1008 8.12516C13.9168 8.04466 13.7136 8 13.5 8ZM12 9C12.5523 9 13 9.44771 13 10C13 10.5523 12.5523 11 12 11C11.4477 11 11 10.5523 11 10C11 9.44771 11.4477 9 12 9ZM11.5 1H2C1.56606 1 1.19668 1.2764 1.0583 1.66274L1.02665 1.76969C1.00922 1.84363 1 1.92074 1 2C1 2.51284 1.38604 2.93551 1.88338 2.99327L2 3H12.5H12.527H13V2.5C13 1.7203 12.4051 1.07955 11.6445 1.00687L11.5 1Z" fill="#333333"/>
</svg>

<svg width="16" height="16" fill="none" xmlns="http://www.w3.org/2000/svg"><path d="M0 1.998A2 2 0 012 0h9.5A2.5 2.5 0 0114 2.5l.001 1c.525.395.89.991.978 1.674l.016.162L15 5.5l.001 2c.607.457.999 1.183.999 2v1c0 .818-.392 1.543-.999 2l-.001 1a2.5 2.5 0 01-2.336 2.495L12.5 16h-10a2.5 2.5 0 01-2.495-2.336L0 13.5V1.998zm1 1.734V13.5a1.5 1.5 0 001.356 1.493L2.5 15h10a1.5 1.5 0 001.493-1.355L14 13.5v-.55c-.161.033-.329.05-.5.05h-2A2.5 2.5 0 019 10.5v-1A2.5 2.5 0 0111.5 7h2c.171 0 .339.017.5.05V5.5a1.5 1.5 0 00-1.355-1.493L12.52 4H2a1.99 1.99 0 01-1-.268zM13.5 8h-2A1.5 1.5 0 0010 9.5v1a1.5 1.5 0 001.5 1.5h2a1.494 1.494 0 00.714-.18l-.06.03c.043-.02.085-.043.125-.068l-.065.037a1.5 1.5 0 00.123-.074l-.058.037a1.49 1.49 0 00.11-.073l-.052.036a1.54 1.54 0 00.115-.085l-.064.049c.038-.028.074-.057.11-.088l-.046.039c.038-.032.074-.065.109-.1l-.064.06c.033-.029.065-.06.095-.092l-.031.033c.031-.032.061-.065.09-.098l-.059.065c.033-.034.064-.07.093-.108l-.035.043c.027-.033.053-.066.077-.1l-.042.057c.029-.037.056-.077.082-.117l-.04.06c.024-.033.046-.067.066-.102l-.026.042c.024-.038.047-.078.068-.119l-.042.077a1.489 1.489 0 00.18-.476l.02-.136L15 10.5v-1l-.007-.149-.02-.136a1.49 1.49 0 00-.18-.475l.042.075a1.49 1.49 0 00-.068-.118l.026.043a1.536 1.536 0 00-.066-.103l.04.06a1.507 1.507 0 00-.082-.117l.042.057a1.522 1.522 0 00-.077-.1l.035.043a1.5 1.5 0 00-.093-.108l.058.065a1.524 1.524 0 00-.09-.098l.032.033a1.508 1.508 0 00-.095-.092l.064.06a1.499 1.499 0 00-.11-.1l.046.04a1.517 1.517 0 00-.11-.09l.065.05a1.518 1.518 0 00-.114-.085l.05.036a1.511 1.511 0 00-.109-.073l.059.037a1.499 1.499 0 00-.124-.074l.065.037a1.495 1.495 0 00-.124-.068l.06.03a1.51 1.51 0 00-.114-.055l.054.025a1.48 1.48 0 00-.137-.058l.083.033A1.495 1.495 0 0013.5 8zM12 9a1 1 0 110 2 1 1 0 010-2zm-.5-8H2a1 1 0 00-.942.663l-.031.107a1.003 1.003 0 00.856 1.223L2 3h11v-.5a1.5 1.5 0 00-1.355-1.493L11.5 1z" fill="#333"/></svg>
